X: 15444
T: Glen Of Aherlow, The
R: reel
M: 4/4
K: Edorian
|:B2 AF BFAF|E2 EF ED B,2|B2 AF BFAF|DFAF FEEA|
B2 AF BFAF|E2 EF EDB,A,|B,E E/E/E DEFA|dBAF FE E2:|
|:eB B/B/B effe|fddd Adfd|eB B/B/B effe|dBAF FE E2|
eB B/B/B effe|fddd Adfd|B2 Bd effe|dBAF FE E2:|

